X: 19
T: Herberts delight
%R: jig
B: "Twenty Four Favourite Dances for the Year 1779", Thomas Straight, ed. p.10 #1
F: http://www.vwml.org/browse/browse-collections-dance-tune-books/browse-straights1779
Z: 2014 John Chambers <jc:trillian.mit.edu>
M: 6/8
L: 1/8
K: A
|:\
[E2A,2]A AGA | [E2A,2]c cBc | cde fed | cBA GFE |\
[E2A,2]A AGA | [E2A,2]c cBc | cde fed | cdB A3 :|
|:\
Aaa caa | Baa caa | Aaa caa | edc B3 |\
Aaa caa | Baa caa | cde fed | cdB A3 :|
%%begintext align
%% First Lady and Gentleman half hey Contrary
%% sides till they come into their own Places
%% lead down the Middle up again and cast
%% off change sides with top Cu: hands four
%% round at bottom Right and left at top
%%endtext

%%sep 1 1 500
%%sep 1 1 500
